explorer/src/assets/icons/archive.svg

<svg width="32" height="32" viewBox="0 0 32 32" fill="none" xmlns="http://www.w3.org/2000/svg">
  <g id="Container">
    <path
      id="Union"
      fill-rule="evenodd"
      clip-rule="evenodd"
      d="M25.9264 6.38C25.285 4.93281 23.8499 3.99928 22.2669 4H9.73438C8.15145 3.99928 6.71626 4.93281 6.0749 6.38L1.46059 16.7655C1.37939 16.9378 1.33398 17.1303 1.33398 17.3333V24C1.33398 26.2091 3.12485 28 5.33398 28H26.6673C28.8765 28 30.6673 26.2091 30.6673 24V17.3333C30.6673 17.3183 30.6671 17.3033 30.6666 17.2882C30.6604 17.1018 30.6159 16.925 30.5407 16.7655L25.9264 6.38ZM27.2826 16L23.4882 7.46C23.4682 7.41476 23.4458 7.37102 23.4213 7.3289C23.1842 6.92179 22.7457 6.66634 22.2673 6.66667H9.73399C9.20613 6.66631 8.72685 6.97738 8.51307 7.46L4.71873 16H10.6673C11.1131 16 11.5294 16.2228 11.7767 16.5937L14.0476 20H17.9537L20.2246 16.5937C20.4719 16.2228 20.8882 16 21.334 16H27.2826ZM4.00065 18.6667V24C4.00065 24.7364 4.59761 25.3333 5.33398 25.3333H26.6673C27.4037 25.3333 28.0007 24.7364 28.0007 24V18.6667H22.0476L19.7767 22.0729C19.5294 22.4439 19.1131 22.6667 18.6673 22.6667H13.334C12.8882 22.6667 12.4719 22.4439 12.2246 22.0729L9.95374 18.6667H4.00065Z"
      fill="#BCBCC6"
    />
  </g>
</svg>

<svg xmlns="http://www.w3.org/2000/svg" width="32" height="32" fill="none">
  <path
    fill="#BCBCC6"
    fill-rule="evenodd"
    d="M25.926 6.38A4.002 4.002 0 0 0 22.266 4H9.735a4.002 4.002 0 0 0-3.66 2.38L1.462 16.766a1.329 1.329 0 0 0-.127.567V24a4 4 0 0 0 4 4h21.333a4 4 0 0 0 4-4v-6.712a1.327 1.327 0 0 0-.126-.523L25.926 6.38ZM27.283 16l-3.795-8.54a1.332 1.332 0 0 0-1.22-.793H9.733c-.528 0-1.007.31-1.22.793L4.718 16h5.948c.446 0 .862.223 1.11.594L14.047 20h3.907l2.27-3.406c.248-.371.664-.594 1.11-.594h5.949ZM4 18.667V24c0 .736.597 1.333 1.333 1.333h21.333c.737 0 1.334-.597 1.334-1.333v-5.333h-5.953l-2.271 3.406a1.333 1.333 0 0 1-1.11.594h-5.333c-.446 0-.862-.223-1.11-.594l-2.27-3.406H4Z"
    clip-rule="evenodd"
  />
</svg>
